polaris-icons/icons/CatalogIcon.svg

<svg xmlns="http://www.w3.org/2000/svg" viewBox="0 0 20 20"><path fill="currentColor" fill-rule="even-odd" d="M14.7723 9C14.1426 9 13.5401 9.2543 13.1033 9.70437L10.4752 12.4126C9.83296 13.0744 9.84295 14.1247 10.4977 14.7743L12.2881 16.5511C12.8833 17.1417 13.8455 17.1507 14.4518 16.5713L17.3848 13.7686C17.7779 13.393 18 12.8748 18 12.3333V10.9926C18 9.89212 17.101 9 15.992 9H14.7723ZM15.75 12C16.1642 12 16.5 11.6642 16.5 11.25C16.5 10.8358 16.1642 10.5 15.75 10.5C15.3358 10.5 15 10.8358 15 11.25C15 11.6642 15.3358 12 15.75 12Z"/>
<path d="M4.95005 6.7C4.95005 5.42974 5.97979 4.4 7.25005 4.4H12.8C14.0703 4.4 15.1 5.42975 15.1 6.7V7.10029C15.1 7.48689 15.4134 7.80029 15.8 7.80029C16.1866 7.80029 16.5 7.48689 16.5 7.10029V6.7C16.5 4.65655 14.8435 3 12.8 3H7.25005C5.2066 3 3.55005 4.65654 3.55005 6.7V13.2501C3.55005 15.2936 5.2066 16.9501 7.25005 16.9501H9.00005C9.38665 16.9501 9.70005 16.6367 9.70005 16.2501C9.70005 15.8635 9.38665 15.5501 9.00005 15.5501H7.25005C5.97979 15.5501 4.95005 14.5204 4.95005 13.2501V6.7Z"/>
<path d="M7 7C7 6.58579 7.33579 6.25 7.75 6.25H12.25C12.6642 6.25 13 6.58579 13 7C13 7.41421 12.6642 7.75 12.25 7.75H7.75C7.33579 7.75 7 7.41421 7 7Z"/>
<path d="M7 10C7 9.58579 7.33579 9.25 7.75 9.25H9.75C10.1642 9.25 10.5 9.58579 10.5 10C10.5 10.4142 10.1642 10.75 9.75 10.75H7.75C7.33579 10.75 7 10.4142 7 10Z"/></svg>

<svg xmlns="http://www.w3.org/2000/svg" viewBox="0 0 20 20"><path fill-rule="even-odd" d="M14.772 9c-.63 0-1.232.254-1.669.704l-2.628 2.709c-.642.661-.632 1.712.023 2.361l1.79 1.777c.595.59 1.557.6 2.164.02l2.933-2.802c.393-.376.615-.894.615-1.436v-1.34c0-1.1-.899-1.993-2.008-1.993h-1.22Zm.978 3c.414 0 .75-.336.75-.75s-.336-.75-.75-.75-.75.336-.75.75.336.75.75.75Z"/><path d="M4.95 6.7c0-1.27 1.03-2.3 2.3-2.3h5.55c1.27 0 2.3 1.03 2.3 2.3v.4c0 .387.313.7.7.7.387 0 .7-.313.7-.7v-.4c0-2.043-1.656-3.7-3.7-3.7h-5.55c-2.043 0-3.7 1.657-3.7 3.7v6.55c0 2.044 1.657 3.7 3.7 3.7h1.75c.387 0 .7-.313.7-.7 0-.386-.313-.7-.7-.7h-1.75c-1.27 0-2.3-1.03-2.3-2.3v-6.55Z"/><path d="M7 7c0-.414.336-.75.75-.75h4.5c.414 0 .75.336.75.75s-.336.75-.75.75h-4.5c-.414 0-.75-.336-.75-.75Z"/><path d="M7 10c0-.414.336-.75.75-.75h2c.414 0 .75.336.75.75s-.336.75-.75.75h-2c-.414 0-.75-.336-.75-.75Z"/></svg>
